src/scalable/mimetypes/application-vnd.openxmlformats-officedocument.wordprocessingml.document.svg

<?xml version="1.0" encoding="UTF-8" standalone="no"?>
<svg
   xmlns:dc="http://purl.org/dc/elements/1.1/"
   xmlns:cc="http://creativecommons.org/ns#"
   xmlns:rdf="http://www.w3.org/1999/02/22-rdf-syntax-ns#"
   xmlns:svg="http://www.w3.org/2000/svg"
   xmlns="http://www.w3.org/2000/svg"
   xmlns:xlink="http://www.w3.org/1999/xlink"
   xmlns:sodipodi="http://sodipodi.sourceforge.net/DTD/sodipodi-0.dtd"
   xmlns:inkscape="http://www.inkscape.org/namespaces/inkscape"
   width="48px"
   height="48px"
   viewBox="0 0 48 48"
   version="1.1"
   id="svg25"
   sodipodi:docname="application-vnd.openxmlformats-officedocument.wordprocessingml.document.svg"
   inkscape:version="0.92.2 2405546, 2018-03-11">
  <metadata
     id="metadata29">
    <rdf:RDF>
      <cc:Work
         rdf:about="">
        <dc:format>image/svg+xml</dc:format>
        <dc:type
           rdf:resource="http://purl.org/dc/dcmitype/StillImage" />
      </cc:Work>
    </rdf:RDF>
  </metadata>
  <sodipodi:namedview
     pagecolor="#ffffff"
     bordercolor="#666666"
     borderopacity="1"
     objecttolerance="10"
     gridtolerance="10"
     guidetolerance="10"
     inkscape:pageopacity="0"
     inkscape:pageshadow="2"
     inkscape:window-width="730"
     inkscape:window-height="480"
     id="namedview27"
     showgrid="false"
     inkscape:zoom="2.4583333"
     inkscape:cx="4.889398"
     inkscape:cy="10.589097"
     inkscape:window-x="651"
     inkscape:window-y="230"
     inkscape:window-maximized="0"
     inkscape:current-layer="svg25" />
  <!-- Generator: Sketch 41.2 (35397) - http://www.bohemiancoding.com/sketch -->
  <title
     id="title2">application-vnd.openxmlformats-officedocument.wordprocessingml.document</title>
  <desc
     id="desc4">Created with Sketch.</desc>
  <g
     id="g829">
    <rect
       rx="2"
       ry="1.9047618"
       y="4"
       x="6"
       height="40"
       width="36"
       id="rect834"
       style="opacity:1;fill:#0091ea;fill-opacity:1;stroke:none;stroke-width:0.92582005;stroke-linecap:round;stroke-linejoin:round;stroke-miterlimit:4;stroke-dasharray:none;stroke-opacity:0.05882353;paint-order:markers stroke fill" />
    <path
       inkscape:connector-curvature="0"
       id="rect866"
       d="M 42,17.242188 A 40,40 0 0 1 23.494141,44 H 40 c 1.108,0 2,-0.849059 2,-1.904297 z"
       style="opacity:0.15;fill:url(#linearGradient877);fill-opacity:1;stroke:none;stroke-width:0.92582005;stroke-linecap:round;stroke-linejoin:round;stroke-miterlimit:4;stroke-dasharray:none;stroke-opacity:0.05882353;paint-order:markers stroke fill" />
  </g>
  <defs
     id="defs11">
    <linearGradient
       inkscape:collect="always"
       xlink:href="#linearGradient875"
       id="linearGradient877"
       x1="32.74707"
       y1="44"
       x2="32.74707"
       y2="17.242188"
       gradientUnits="userSpaceOnUse" />
    <linearGradient
       inkscape:collect="always"
       id="linearGradient875">
      <stop
         style="stop-color:#000000;stop-opacity:1;"
         offset="0"
         id="stop871" />
      <stop
         style="stop-color:#000000;stop-opacity:0;"
         offset="1"
         id="stop873" />
    </linearGradient>
  </defs>
  <g
     id="Page-1"
     stroke="none"
     stroke-width="1"
     fill="none"
     fill-rule="evenodd">
    <g
       id="application-vnd.openxmlformats-officedocument.wordprocessingml.document">
      <path
         d="M25,19.5 L33,19.5 C33.2761424,19.5 33.5,19.2761424 33.5,19 C33.5,18.7238576 33.2761424,18.5 33,18.5 L25,18.5 C24.7238576,18.5 24.5,18.7238576 24.5,19 C24.5,19.2761424 24.7238576,19.5 25,19.5 Z"
         id="Path-381"
         fill="#FFFFFF" />
      <path
         d="M25,23.5 L33,23.5 C33.2761424,23.5 33.5,23.2761424 33.5,23 C33.5,22.7238576 33.2761424,22.5 33,22.5 L25,22.5 C24.7238576,22.5 24.5,22.7238576 24.5,23 C24.5,23.2761424 24.7238576,23.5 25,23.5 Z"
         id="path16"
         fill="#FFFFFF" />
      <path
         d="M16,27.5 L33,27.5 C33.2761424,27.5 33.5,27.2761424 33.5,27 C33.5,26.7238576 33.2761424,26.5 33,26.5 L16,26.5 C15.7238576,26.5 15.5,26.7238576 15.5,27 C15.5,27.2761424 15.7238576,27.5 16,27.5 Z"
         id="path18"
         fill="#FFFFFF" />
      <path
         d="M16,31.5 L33,31.5 C33.2761424,31.5 33.5,31.2761424 33.5,31 C33.5,30.7238576 33.2761424,30.5 33,30.5 L16,30.5 C15.7238576,30.5 15.5,30.7238576 15.5,31 C15.5,31.2761424 15.7238576,31.5 16,31.5 Z"
         id="path20"
         fill="#FFFFFF" />
      <path
         d="M19.4697266,22.8720703 L18.3125,18.5800781 L17.140625,22.8720703 C17.0494787,23.1975928 16.977051,23.4311516 16.9233398,23.5727539 C16.8696286,23.7143562 16.7760423,23.841308 16.6425781,23.9536133 C16.5091139,24.0659185 16.3317068,24.1220703 16.1103516,24.1220703 C15.9313142,24.1220703 15.7840175,24.0887048 15.668457,24.0219727 C15.5528966,23.9552406 15.4593103,23.8608405 15.3876953,23.7387695 C15.3160804,23.6166986 15.2574872,23.4718433 15.2119141,23.3041992 C15.1663409,23.1365552 15.1256512,22.9811205 15.0898438,22.8378906 L13.8984375,18.0185547 C13.8268226,17.7386054 13.7910156,17.5253914 13.7910156,17.3789062 C13.7910156,17.1933584 13.8561191,17.03711 13.9863281,16.9101562 C14.1165371,16.7832025 14.2776683,16.7197266 14.4697266,16.7197266 C14.7333998,16.7197266 14.9108068,16.8043611 15.0019531,16.9736328 C15.0930994,17.1429045 15.1728512,17.3886703 15.2412109,17.7109375 L16.1787109,21.890625 L17.2285156,17.9794922 C17.306641,17.6800115 17.3766273,17.4521492 17.4384766,17.2958984 C17.5003258,17.1396477 17.6012363,17.0045579 17.7412109,16.890625 C17.8811856,16.7766921 18.0716134,16.7197266 18.3125,16.7197266 C18.5566418,16.7197266 18.7462558,16.7791335 18.8813477,16.8979492 C19.0164395,17.0167649 19.1100258,17.1461582 19.1621094,17.2861328 C19.214193,17.4261075 19.2841792,17.657225 19.3720703,17.9794922 L20.4316406,21.890625 L21.3691406,17.7109375 C21.4147138,17.4928375 21.4578448,17.3219407 21.4985352,17.1982422 C21.5392255,17.0745437 21.6092117,16.9638677 21.7084961,16.8662109 C21.8077804,16.7685542 21.951822,16.7197266 22.140625,16.7197266 C22.329428,16.7197266 22.4897454,16.7823887 22.621582,16.9077148 C22.7534186,17.033041 22.8193359,17.1901032 22.8193359,17.3789062 C22.8193359,17.5123705 22.783529,17.7255845 22.7119141,18.0185547 L21.5205078,22.8378906 C21.4391272,23.1634131 21.3715823,23.4018547 21.3178711,23.5532227 C21.2641599,23.7045906 21.173015,23.837239 21.0444336,23.9511719 C20.9158522,24.0651047 20.7343762,24.1220703 20.5,24.1220703 C20.2786447,24.1220703 20.1012376,24.0667323 19.9677734,23.9560547 C19.8343092,23.8453771 19.7415367,23.7208666 19.6894531,23.5825195 C19.6373695,23.4441725 19.5641281,23.2073584 19.4697266,22.8720703 Z"
         id="W"
         fill="#FFFFFF" />
    </g>
  </g>
</svg>

<svg xmlns="http://www.w3.org/2000/svg" xmlns:xlink="http://www.w3.org/1999/xlink" width="48" height="48"><g paint-order="markers stroke fill"><rect rx="2" ry="1.905" y="4" x="6" height="40" width="36" fill="#0091ea"/><path d="M42 17.242A40 40 0 0 1 23.494 44H40c1.108 0 2-.85 2-1.904z" opacity=".15" fill="url(#a)"/></g><defs><linearGradient xlink:href="#b" id="a" x1="32.747" y1="44" x2="32.747" y2="17.242" gradientUnits="userSpaceOnUse"/><linearGradient id="b"><stop offset="0"/><stop offset="1" stop-opacity="0"/></linearGradient></defs><g fill="#FFF" fill-rule="evenodd"><path d="M25 19.5h8a.5.5 0 1 0 0-1h-8a.5.5 0 1 0 0 1zM25 23.5h8a.5.5 0 1 0 0-1h-8a.5.5 0 1 0 0 1zM16 27.5h17a.5.5 0 1 0 0-1H16a.5.5 0 1 0 0 1zM16 31.5h17a.5.5 0 1 0 0-1H16a.5.5 0 1 0 0 1zM19.47 22.872l-1.157-4.292-1.172 4.292c-.092.326-.164.56-.218.7a.929.929 0 0 1-.28.382c-.134.112-.311.168-.533.168a.875.875 0 0 1-.442-.1.768.768 0 0 1-.28-.283 1.78 1.78 0 0 1-.176-.435 23.685 23.685 0 0 1-.122-.466l-1.192-4.82a2.82 2.82 0 0 1-.107-.64c0-.185.065-.34.195-.468a.665.665 0 0 1 .484-.19c.263 0 .44.084.532.254.091.169.17.415.24.737l.937 4.18 1.05-3.912c.078-.299.148-.527.21-.683a.986.986 0 0 1 .302-.405c.14-.114.33-.171.572-.171.244 0 .433.06.568.178a.973.973 0 0 1 .281.388c.052.14.122.371.21.693l1.06 3.912.937-4.18a4.99 4.99 0 0 1 .13-.513.823.823 0 0 1 .21-.332c.099-.097.243-.146.432-.146.188 0 .349.062.48.188a.623.623 0 0 1 .198.47c0 .134-.035.348-.107.64l-1.191 4.82a8.568 8.568 0 0 1-.203.715.953.953 0 0 1-.274.398c-.128.114-.31.171-.544.171-.221 0-.399-.055-.532-.166a.898.898 0 0 1-.279-.373 9.957 9.957 0 0 1-.22-.71z"/></g></svg>
